newicons/ddnet.svg

<?xml version="1.0" encoding="UTF-8" standalone="no"?>
<svg
   viewBox="0 0 48 48"
   version="1.1"
   id="svg1"
   sodipodi:docname="ddnet.svg"
   inkscape:version="1.2.2 (b0a8486541, 2022-12-01)"
   xml:space="preserve"
   xmlns:inkscape="http://www.inkscape.org/namespaces/inkscape"
   xmlns:sodipodi="http://sodipodi.sourceforge.net/DTD/sodipodi-0.dtd"
   xmlns="http://www.w3.org/2000/svg"
   xmlns:svg="http://www.w3.org/2000/svg"><sodipodi:namedview
     id="namedview1"
     pagecolor="#505050"
     bordercolor="#eeeeee"
     borderopacity="1"
     inkscape:showpageshadow="0"
     inkscape:pageopacity="0"
     inkscape:pagecheckerboard="0"
     inkscape:deskcolor="#505050"
     inkscape:zoom="6.2976698"
     inkscape:cx="-29.375945"
     inkscape:cy="20.324978"
     inkscape:window-width="1918"
     inkscape:window-height="1053"
     inkscape:window-x="0"
     inkscape:window-y="0"
     inkscape:window-maximized="1"
     inkscape:current-layer="svg1"
     showgrid="false" /><defs
     id="defs1"><style
       id="style1">.a { fill:none;stroke:#fff;stroke-linecap:round;stroke-linejoin:round; }
</style></defs><g
     id="g16695"><g
       id="g16681"><path
         style="fill:none;stroke:#ffffff;stroke-width:1;stroke-linecap:round;stroke-linejoin:round;stroke-opacity:1;stop-color:#000000"
         d="m 23.397426,19.810104 a 1.7955628,3.6204395 0 0 1 -1.795562,3.620439 1.7955628,3.6204395 0 0 1 -1.795564,-3.620439 1.7955628,3.6204395 0 0 1 1.795564,-3.62044 1.7955628,3.6204395 0 0 1 1.795562,3.62044 z"
         id="path16664" /><path
         style="fill:none;stroke:#ffffff;stroke-width:1;stroke-linecap:round;stroke-linejoin:round;stroke-opacity:1;stop-color:#000000"
         d="m 28.193699,19.810104 a 1.7955628,3.6204395 0 0 1 -1.795563,3.620439 1.7955628,3.6204395 0 0 1 -1.795563,-3.620439 1.7955628,3.6204395 0 0 1 1.795563,-3.62044 1.7955628,3.6204395 0 0 1 1.795563,3.62044 z"
         id="path16662" /></g><g
       id="g16686"><path
         style="fill:none;stroke:#ffffff;stroke-width:1;stroke-linecap:round;stroke-linejoin:round;stroke-opacity:1;stop-color:#000000"
         d="M 23.808935,32.251605 A 11.552459,11.537915 0 0 1 12.447541,20.715268 11.552459,11.537915 0 0 1 24,9.177353 11.552459,11.537915 0 0 1 35.552458,20.715268 v 0 a 11.552459,11.537915 0 0 1 -2.537584,7.215263"
         id="path16666" /><path
         style="fill:none;stroke:#ffffff;stroke-width:1;stroke-linecap:round;stroke-linejoin:round;stroke-opacity:1;stop-color:#000000"
         d="m 35.657692,29.916954 c -2.154304,-3.709371 -12.69129,-3.839015 -12.106171,1.363988 0.224761,1.99862 1.565652,2.152191 4.090343,2.139312 l 4.984563,-0.02543 c 1.545733,-0.0079 4.480263,-0.982928 3.031265,-3.477873 z"
         id="path16660" /><path
         style="fill:none;stroke:#ffffff;stroke-width:1;stroke-linecap:round;stroke-linejoin:round;stroke-opacity:1;stop-color:#000000"
         d="m 15.296732,28.291797 c -0.991838,0.66253 -1.579078,1.64893 -1.42836,2.989148 0.224762,1.998616 1.565656,2.152191 4.090343,2.139312 l 4.984562,-0.02543 c 0.494413,-0.0025 1.130913,-0.103998 1.720603,-0.322505"
         id="path16658" /></g></g><g
     id="g16699"><path
       style="fill:none;stroke:#ffffff;stroke-width:1;stroke-linecap:round;stroke-linejoin:round;stroke-opacity:1;stop-color:#000000"
       d="M 35.041742,29.130606 A 18.500001,5.377441 0 0 1 42.5,33.445206 v 0 A 18.500001,5.377441 0 0 1 24,38.822647 18.500001,5.377441 0 0 1 5.4999995,33.445206 18.500001,5.377441 0 0 1 14.657985,28.803751"
       id="path16656" /><path
       style="fill:none;stroke:#ffffff;stroke-width:1;stroke-linecap:round;stroke-linejoin:round;stroke-opacity:1;stop-color:#000000"
       d="M 36.05016,31.155627 A 14.118111,3.6495533 0 0 1 38.11811,33.057234 14.118111,3.6495533 0 0 1 24,36.706787 14.118111,3.6495533 0 0 1 9.8818896,33.057234 14.118111,3.6495533 0 0 1 13.846668,30.521402"
       id="path16551" /></g></svg>

<?xml version="1.0" encoding="UTF-8"?><svg id="a" xmlns="http://www.w3.org/2000/svg" viewBox="0 0 48 48"><defs><style>.m{fill:none;stroke:#fff;stroke-linecap:round;stroke-linejoin:round;}</style></defs><g id="b"><g id="c"><path id="d" class="m" d="M23.3974,19.8101c0,1.9995-.8039,3.6204-1.7956,3.6204h0c-.9917,0-1.7956-1.6209-1.7956-3.6204h0c0-1.9995.8039-3.6204,1.7956-3.6204h0c.9917,0,1.7956,1.6209,1.7956,3.6204h0Z"/><path id="e" class="m" d="M28.1937,19.8101c0,1.9995-.8039,3.6204-1.7956,3.6204h0c-.9917,0-1.7956-1.6209-1.7956-3.6204h0c0-1.9995.8039-3.6204,1.7956-3.6204h0c.9917,0,1.7956,1.6209,1.7956,3.6204h0Z"/></g><g id="f"><path id="g" class="m" d="M23.8089,32.2516c-6.3049-.1042-11.3614-5.2385-11.3614-11.5363,0-6.3722,5.1722-11.5379,11.5525-11.5379s11.5525,5.1657,11.5525,11.5379h0c0,2.6233-.8951,5.1682-2.5376,7.2153"/><path id="h" class="m" d="M35.6577,29.917c-2.1543-3.7094-12.6913-3.839-12.1062,1.364.2248,1.9986,1.5657,2.1522,4.0903,2.1393l4.9846-.0254c1.5457-.0079,4.4803-.9829,3.0313-3.4779Z"/><path id="i" class="m" d="M15.2967,28.2918c-.9918.6625-1.5791,1.6489-1.4284,2.9891.2248,1.9986,1.5657,2.1522,4.0903,2.1393l4.9846-.0254c.4944-.0025,1.1309-.104,1.7206-.3225"/></g></g><g id="j"><path id="k" class="m" d="M35.0417,29.1306c4.6926,1.0147,7.4583,2.6146,7.4583,4.3146h0c0,2.9699-8.2827,5.3774-18.5,5.3774h0c-10.2173,0-18.5-2.4076-18.5-5.3774h0c0-1.9101,3.486-3.6769,9.158-4.6415"/><path id="l" class="m" d="M36.0502,31.1556c1.3524.5727,2.068,1.2306,2.068,1.9016,0,2.0156-6.3209,3.6496-14.1181,3.6496s-14.1181-1.634-14.1181-3.6496c0-.9462,1.4215-1.8554,3.9648-2.5358"/></g></svg>
